!!!COM: Palestrina, Giovanni Perluigi da
!!!OPR: De beata virgine (1570)
!!!OTL: Credo
**kern	**kern	**kern	**kern	**kern	**kern
*Ibass	*Itenor	*Itenor	*Icalto	*Icant	*Icant
!Bassus	!Tenor 2	!Tenor 1	!Altus	!Cantus 2	!Cantus 1
*clefF4	*clefGv2	*clefGv2	*clefG2	*clefG2	*clefG2
*k[b-]	*k[b-]	*k[b-]	*k[b-]	*k[b-]	*k[b-]
*?:X	*?:X	*?:X	*?:X	*?:X	*?:X
*M4/2	*M4/2	*M4/2	*M4/2	*M4/2	*M4/2
=1	=1	=1	=1	=1	=1
0r	0r	1A	0a	1cc	1ee
.	.	1d	.	1dd	1ff
=2	=2	=2	=2	=2	=2
0r	0r	1.c	2.cc	1g	1ee
.	.	.	4b	.	.
.	.	.	2a	1cc	1ee
.	.	2c	2g	.	.
=3	=3	=3	=3	=3	=3
0r	0r	2d	2f#	2a	2dd
.	.	2e	1g	2g	2cc
.	.	1d	.	1a	1dd
.	.	.	2f#	.	.
=4	=4	=4	=4	=4	=4
1r	1r	0G	1g	1b	0dd
1G	1g	.	1d	1b	.
=5	=5	=5	=5	=5	=5
1A	1e	0r	1a	1cc	0r
2d	1f#	.	2a	2dd	.
2d	.	.	2a	2dd	.
=6	=6	=6	=6	=6	=6
1G	1g	0r	1b	1dd	0r
2.A	2e	.	2a	2cc	.
.	2a	.	[2cc	[2ee	.
4B	.	.	.	.	.
=7	=7	=7	=7	=7	=7
2c	2.g	0r	2cc]	2ee]	0r
2G	.	.	2b	1dd	.
.	4f	.	.	.	.
1A	1e	.	1a	.	.
.	.	.	.	2cc#	.
=8	=8	=8	=8	=8	=8
1D	1f#	1r	1a	1dd	1r
[1G	[1g	[1d	1r	2r	[1b
.	.	.	.	[2dd	.
=9	=9	=9	=9	=9	=9
2G]	2g]	2d]	0r	2dd]	2b]
2C	2g	2e	.	2cc	2cc
2G	2g	2d	.	2b	2dd
2G	2g	2B	.	2b	2dd
=10	=10	=10	=10	=10	=10
1C	1g	1c	0r	2g	1ee
.	.	.	.	1cc	.
[1G	[1g	1d	.	.	[1dd
.	.	.	.	[2b	.
=11	=11	=11	=11	=11	=11
2G]	2g]	2B	0r	2b]	2dd]
2A	2e	2.e	.	1a	2cc
1E	[1e	.	.	.	1b
.	.	4d	.	.	.
.	.	2B	.	2g#	.
=12	=12	=12	=12	=12	=12
1A	1e]	1c	2r	1a	2.a
.	.	.	1a	.	.
.	.	.	.	.	4b
1r	1r	1e	.	1r	2cc
.	.	.	2g	.	2b
=13	=13	=13	=13	=13	=13
0r	0r	1f	2.a	1r	2r
.	.	.	.	.	1a
.	.	.	4b	.	.
.	.	1e	2cc	1ee	.
.	.	.	[2b	.	2g
=14	=14	=14	=14	=14	=14
0r	0r	1d	2b]	1ff	2.a
.	.	.	2.a	.	.
.	.	.	.	.	4b
.	.	1c	.	1ee	1cc
.	.	.	4g	.	.
.	.	.	[2g	.	.
=15	=15	=15	=15	=15	=15
0r	0r	1d	2g]	1dd	2b
.	.	.	2f#	.	2.a
.	.	1e	1g	1cc	.
.	.	.	.	.	4g
.	.	.	.	.	[2g
=16	=16	=16	=16	=16	=16
0r	1r	1d	1a	2dd	2g]
.	.	.	.	2dd	2f#
.	2.B	[1G	[1g	[1dd	2.g
.	4c	.	.	.	4a
=17	=17	=17	=17	=17	=17
1r	2d	1G]	0g]	1dd]	0b
.	2d	.	.	.	.
2.E	2e	2r	.	1r	.
.	2e	[2B	.	.	.
4F	.	.	.	.	.
=18	=18	=18	=18	=18	=18
1G	2.d	4B]	2r	2.b	1r
.	.	4c	.	.	.
.	.	1d	1g	.	.
.	4c	.	.	4cc	.
1G	4B	.	.	2dd	2.b
.	4A	.	.	.	.
.	[2B	2G	2g	2dd	.
.	.	.	.	.	4cc
=19	=19	=19	=19	=19	=19
1.G	2B]	2.B	2g	1.b	2dd
.	4A	.	2g	.	2dd
.	4G	4c	.	.	.
.	2.B	1d	2g	.	2dd
2G	.	.	2g	2b	2dd
.	4c	.	.	.	.
=20	=20	=20	=20	=20	=20
1G	4d	2r	0g	2.b	1dd
.	4c	.	.	.	.
.	4B	1d	.	.	.
.	4A	.	.	4cc	.
1G	2G	.	.	1dd	1b
.	[2g	[2G	.	.	.
=21	=21	=21	=21	=21	=21
1C	2g]	2G]	1g	1ee	0cc
.	2e	2.c	.	.	.
2.F	4f	.	1a	2cc	.
.	4g	4B	.	.	.
.	[2a	4A	.	[2ff	.
4E	.	4G	.	.	.
=22	=22	=22	=22	=22	=22
0D	4a]	0A	2.f	4ff]	0dd
.	4g	.	.	4ee	.
.	4f	.	.	4dd	.
.	4e	.	4g	4cc#	.
.	1f	.	1a	1dd	.
=23	=23	=23	=23	=23	=23
0AA	1e	1A	[0a	1cc#	0ee
.	1e	1A	.	2r	.
.	.	.	.	2cc#	.
=24	=24	=24	=24	=24	=24
1r	1f	1d	0a]	2dd	0r
.	.	.	.	2dd	.
1A	2e	2c	.	2ee	.
.	2e	2c	.	[2a	.
=25	=25	=25	=25	=25	=25
1B-	1d	2f	1r	4a]	0r
.	.	.	.	8g	.
.	.	.	.	8f	.
.	.	2d	.	2g	.
2A	2c	2.e	1a	1a	.
2A	2c	.	.	.	.
.	.	4f	.	.	.
=26	=26	=26	=26	=26	=26
1G	2d	2g	1b-	0r	0r
.	2.e	2G	.	.	.
2F	.	2A	2a	.	.
.	4d	.	.	.	.
2D	[2d	2F	2a	.	.
=27	=27	=27	=27	=27	=27
1E	2d]	1G	1g	0r	1ee
.	2c#	.	.	.	.
2D	2d	1A	2f	.	1ff
2D	2d	.	2f	.	.
=28	=28	=28	=28	=28	=28
1C	2e	2.c	2g	0r	2ee
.	2c	.	2.a	.	2ee
.	.	4c	.	.	.
1r	2d	2.B	.	.	1dd
.	.	.	4g	.	.
.	2G	.	[2g	.	.
.	.	8A	.	.	.
.	.	8G	.	.	.
=29	=29	=29	=29	=29	=29
1r	2c	2A	4g]	2r	2cc
.	.	.	4f	.	.
.	2c	2A	4f	2a	2cc
.	.	.	4e	.	.
2r	4B	1G	2.g	2b	2dd
.	4G	.	.	.	.
[2C	[2g	.	.	[2cc	[2ee
.	.	.	4f	.	.
=30	=30	=30	=30	=30	=30
2C]	2g]	0r	2e	2cc]	2ee]
2D	2f	.	2.a	2a	1dd
2A	1e	.	.	[1a	.
.	.	.	4g	.	.
2A	.	.	2e	.	2cc#
=31	=31	=31	=31	=31	=31
1D	1d	1r	2f#	1a]	2dd
.	.	.	2f#	.	2.dd
1r	1G	2r	1g	1b	.
.	.	.	.	.	4cc
.	.	2g	.	.	2b
=32	=32	=32	=32	=32	=32
0r	0r	2f	2r	1cc	2a
.	.	2e	1g	.	2g
.	.	1d	.	[1dd	1a
.	.	.	2f#	.	.
=33	=33	=33	=33	=33	=33
0r	0r	2r	1g	2dd]	2b
.	.	1g	.	2b	2.dd
.	.	.	2d	1dd	.
.	.	.	.	.	4cc
.	.	2f	[2a	.	2a
=34	=34	=34	=34	=34	=34
1r	2r	1e	4a]	1ee	1b
.	.	.	8g	.	.
.	.	.	8f#	.	.
.	1e	.	2g#	.	.
1A	.	1c	1a	2r	1cc
.	[2f	.	.	[2a	.
=35	=35	=35	=35	=35	=35
1B-	2f]	1d	1r	2a]	0r
.	2d	.	.	2g	.
1A	2e	1c	2r	4a	.
.	.	.	.	4b	.
.	2e	.	2a	4cc	.
.	.	.	.	4dd	.
=36	=36	=36	=36	=36	=36
1A	2e	1c	2a	2ee	0r
.	4A	.	1cc	2ff	.
.	4B	.	.	.	.
2A	4c	2c	.	2ee	.
.	4d	.	.	.	.
2A	4e	2A	2cc	4cc	.
.	4f	.	.	4dd	.
=37	=37	=37	=37	=37	=37
1G	2g	2B	1b	4ee	0r
.	.	.	.	4dd	.
.	2d	2B	.	2.dd	.
1F	2.f	1c	2a	.	.
.	.	.	.	4cc	.
.	.	.	2a	[2cc	.
.	4e	.	.	.	.
=38	=38	=38	=38	=38	=38
1G	0d	2r	0g	2cc]	1r
.	.	2.G	.	4b	.
.	.	.	.	4a	.
2r	.	.	.	2b	1dd
.	.	4A	.	.	.
[2G	.	4B	.	[2b	.
.	.	4c	.	.	.
=39	=39	=39	=39	=39	=39
2G]	0r	1d	2r	2b]	1dd
2G	.	.	2g	2b	.
1C	.	2c	2g	1cc	1ee
.	.	2c	2g	.	.
=40	=40	=40	=40	=40	=40
1G	0r	1d	1g	1b	1dd
1G	.	2B	[1g	2b	2dd
.	.	2G	.	2dd	2b
=41	=41	=41	=41	=41	=41
0r	0r	2G	1g]	2dd	2b
.	.	2c	.	2ee	2cc
.	.	2G	1r	2dd	2b
.	.	2A	.	2cc	2a
=42	=42	=42	=42	=42	=42
0r	0r	1e	2r	1b	1g#
.	.	.	2e	.	.
.	.	1r	2A	1cc	1a
.	.	.	[2a	.	.
=43	=43	=43	=43	=43	=43
0r	1e	0r	2a]	1b	2e
.	.	.	2g#	.	2.ee
.	1A	.	[1a	1cc	.
.	.	.	.	.	4dd
.	.	.	.	.	[2cc
=44	=44	=44	=44	=44	=44
1r	1d	0r	2a]	1dd	2cc]
.	.	.	4g	.	2b
.	.	.	4f	.	.
2r	2c	.	2g	1ee	[1cc
2A	2c	.	2a	.	.
=45	=45	=45	=45	=45	=45
2A	2A	0r	1e	0ee	2cc]
2G#	2B	.	.	.	2b
1A	2.c	.	2r	.	2a
.	.	.	2a	.	2cc
.	4d	.	.	.	.
=46	=46	=46	=46	=46	=46
2E	1e	1r	2a	1ee	1b
2E	.	.	2g#	.	.
2F	1A	2r	2a	2cc	[1a
2D	.	2d	2f	2dd	.
=47	=47	=47	=47	=47	=47
1A	2r	2d	2e	4ee	1a]
.	.	.	.	4ff	.
.	2e	2c#	2A	2.ee	.
1D	2f	1d	2a	.	1r
.	.	.	.	4dd	.
.	2d	.	2a	[2dd	.
=48	=48	=48	=48	=48	=48
1r	1e	1A	1a	2dd]	1r
.	.	.	.	2cc#	.
2r	2d	2r	2f#	1dd	2r
[2G	[2d	[2B	[2g	.	[2dd
=49	=49	=49	=49	=49	=49
2G]	2d]	2B]	2g]	0r	2dd]
2F#	2d	2A	2a	.	2dd
2G	2d	2B	2g	.	2dd
2C	2c	2c	2g	.	2ee
=50	=50	=50	=50	=50	=50
1.G	1d	1B	1.g	0r	1dd
.	2d	1G	.	.	1b
2E	[2e	.	2g	.	.
=51	=51	=51	=51	=51	=51
2A	2e]	2.c	2e	0r	2cc
2A	2A	.	2f#	.	2cc
.	.	4c	.	.	.
2G	2B	2d	2g	.	2b
2C	2G	2e	2g	.	2cc
=52	=52	=52	=52	=52	=52
1.G	2.B	2d	1g	0r	1dd
.	.	4G	.	.	.
.	4c	4A	.	.	.
.	2d	4B	2g	.	1b
.	.	4c	.	.	.
2G	2B	[2d	4d	.	.
.	.	.	4e	.	.
=53	=53	=53	=53	=53	=53
2D	1A	4d]	4f	0r	1dd
.	.	4c	4g	.	.
2F	.	2A	1a	.	.
1E	2r	1B	.	.	1ee
.	[2e	.	2g#	.	.
=54	=54	=54	=54	=54	=54
1A	2e]	2A	1a	1ee	0r
.	2c	1a	.	.	.
1r	1d	.	2r	1ff	.
.	.	2f	2a	.	.
=55	=55	=55	=55	=55	=55
0r	2c	2g	1cc	1ee	0r
.	2A	2a	.	.	.
.	1c	4e	1cc	2ee	.
.	.	4f	.	.	.
.	.	4g	.	2ee	.
.	.	4e	.	.	.
=56	=56	=56	=56	=56	=56
0r	2d	2f#	2a	2dd	0r
.	2e	1g	2g	2cc	.
.	1d	.	2a	1dd	.
.	.	2f#	2a	.	.
=57	=57	=57	=57	=57	=57
0r	0r	2g	1g	2r	1b
.	.	1e	.	1g	.
.	.	.	1r	.	1cc
.	.	[2f	.	[2a	.
=58	=58	=58	=58	=58	=58
0r	0r	2f]	0r	2a]	2dd
.	.	2g	.	2b	1ee
.	.	1a	.	1cc	.
.	.	.	.	.	[2ff
=59	=59	=59	=59	=59	=59
0r	0r	2.g	1r	2.b	4ff]
.	.	.	.	.	4ee
.	.	.	.	.	1ee
.	.	8f	.	8a	.
.	.	8e	.	8g	.
.	.	1f	2r	2a	.
.	.	.	2a	2a	2dd
=60	=60	=60	=60	=60	=60
0r	1r	1e	2a	1b	0ee
.	.	.	2g#	.	.
.	2r	1A	1a	1cc	.
.	2a	.	.	.	.
=61	=61	=61	=61	=61	=61
1E	2a	1r	0e	1b	2r
.	2g#	.	.	.	2ee
2A	1a	2r	.	1cc	2ee
2A	.	2A	.	.	2ee
=62	=62	=62	=62	=62	=62
1D	2f	2A	1a	1dd	1ff
.	2.d	2A	.	.	.
2G	.	2B	1g	1b	2dd
.	4c	.	.	.	.
2G	2B	2G	.	.	2ee
=63	=63	=63	=63	=63	=63
2.F	4A	1A	2c	1cc	0ff
.	4B	.	.	.	.
.	1c	.	1f	.	.
4E	.	.	.	.	.
1D	.	1d	.	1dd	.
.	2B	.	4e	.	.
.	.	.	4d	.	.
=64	=64	=64	=64	=64	=64
0C	1c	1G	2.g	2ee	1ee
.	.	.	.	2gg	.
.	.	.	4f	.	.
.	2g	2r	[1e	4gg	1ee
.	.	.	.	4ff	.
.	4g	2g	.	4ee	.
.	4f	.	.	4dd	.
=65	=65	=65	=65	=65	=65
1c	4e	4g	1e]	2.cc	1ee
.	4d	4f	.	.	.
.	2.c	4e	.	.	.
.	.	4d	.	8b	.
.	.	.	.	8a	.
4c	.	1e	2r	2g	[1cc
4B	4d	.	.	.	.
4A	2e	.	2cc	[2a	.
4G	.	.	.	.	.
=66	=66	=66	=66	=66	=66
2.F	2.f	1.A	4cc	2a]	2cc]
.	.	.	4b	.	.
.	.	.	4a	2a	2cc
4E	4g	.	4g	.	.
2D	2a	.	2f	1a	2dd
2C#	[2A	[2a	2e	.	[2ee
=67	=67	=67	=67	=67	=67
1D	2A]	4a]	2f	0a	2ee]
.	.	4g	.	.	.
.	2.a	2f	2d	.	1dd
1A	.	1e	2e	.	.
.	4g	.	.	.	.
.	2e	.	2a	.	2cc#
=68	=68	=68	=68	=68	=68
0D	2f	1d	1a	2r	[0dd
.	2a	.	.	2d	.
.	4a	2r	[1f	4d	.
.	4g	.	.	4e	.
.	4f	2a	.	4f	.
.	4e	.	.	4g	.
=69	=69	=69	=69	=69	=69
1D	2.d	4a	2f]	1a	0dd]
.	.	4g	.	.	.
.	.	4f	2f	.	.
.	4c	4e	.	.	.
2G	2B	1d	2g	2b	.
2F#	2A	.	[2a	[2dd	.
=70	=70	=70	=70	=70	=70
1G	1d	2B	2a]	4dd]	[0dd
.	.	.	.	4cc	.
.	.	2G	1g	2b	.
1D	1d	1A	.	1a	.
.	.	.	2f#	.	.
=71	=71	=71	=71	=71	=71
0G	0d	0G	0g	0b	0dd]
=72	=72	=72	=72	=72	=72
1r	1r	1r	1r	1r	1r
1G	1B	1d	[1g	1b	1dd
=73	=73	=73	=73	=73	=73
1C	1G	1c	1g]	1cc	1ee
[1G	4G	[1B	[1g	[1dd	4dd
.	4A	.	.	.	4cc
.	4B	.	.	.	4b
.	4c	.	.	.	4a
=74	=74	=74	=74	=74	=74
1G]	1.d	1B]	1g]	1dd]	2g
.	.	.	.	.	2.gg
1D	.	1A	1a	1dd	.
.	.	.	.	.	8ff
.	.	.	.	.	8ee
.	2d	.	.	.	2ff#
=75	=75	=75	=75	=75	=75
1G	1B	4G	1b	1dd	1gg
.	.	4A	.	.	.
.	.	4B	.	.	.
.	.	4c	.	.	.
1G	1G	2d	1b	1dd	1gg
.	.	2d	.	.	.
=76	=76	=76	=76	=76	=76
0D	0A	0d	0a	0dd	1ff#
.	.	.	.	.	2r
.	.	.	.	.	[2dd
=77	=77	=77	=77	=77	=77
1G	1B	1d	1g	1b	2dd]
.	.	.	.	.	2.gg
1C	2.G	1c	2g	1cc	.
.	.	.	.	.	4ff
.	.	.	2g	.	2ee
.	4A	.	.	.	.
=78	=78	=78	=78	=78	=78
1G	2B	2d	4g	1b	2dd
.	.	.	4f	.	.
.	2B	2.e	4e	.	2gg
.	.	.	4d	.	.
1A	1A	.	1c	1cc	1ee
.	.	4c	.	.	.
.	.	2e	.	.	.
=79	=79	=79	=79	=79	=79
0D	2.a	1d	2.f	0dd	2.ff
.	4g	.	4g	.	4ee
.	1f	[1A	1a	.	1dd
=80	=80	=80	=80	=80	=80
1A	0e	1A]	0a	0ee	1cc#
1A	.	[1a	.	.	1ee
=81	=81	=81	=81	=81	=81
1F	0r	1a]	1.cc	0r	1ff
1C	.	1g	.	.	1ee
.	.	.	2cc	.	.
=82	=82	=82	=82	=82	=82
1c	0r	1g	1cc	0r	1ee
1G	.	1g	1b-	.	2dd
.	.	.	.	.	[2dd
=83	=83	=83	=83	=83	=83
1.A	1r	2e	1.a	0ee	2dd]
.	.	2e	.	.	4cc
.	.	.	.	.	4b
.	1e	1A	.	.	2cc#
2A	.	.	2a	.	2cc#
=84	=84	=84	=84	=84	=84
1D	1d	2r	1a	1ff	2dd
.	.	2a	.	.	2dd
1r	1A	2a	1r	1ee	2cc
.	.	2a	.	.	2cc
=85	=85	=85	=85	=85	=85
0r	1c	1g	0r	1ee	1cc
.	1d	1f	.	[1dd	1a
=86	=86	=86	=86	=86	=86
0A	1A	1e	0a	2dd]	1a
.	.	.	.	4cc	.
.	.	.	.	4b	.
.	1r	1e	.	1cc#	1r
=87	=87	=87	=87	=87	=87
1G	2r	1g	1b-	0dd	2r
.	2d	.	.	.	2g
1D	1d	1f	1a	.	2a
.	.	.	.	.	4f
.	.	.	.	.	4g
=88	=88	=88	=88	=88	=88
1F	1c	1f	1a	1r	4a
.	.	.	.	.	4b-
.	.	.	.	.	4cc
.	.	.	.	.	4a
1G	1B-	1d	[1g	[1dd	2b-
.	.	.	.	.	2g
=89	=89	=89	=89	=89	=89
0D	0A	[0d	2g]	1dd]	0a
.	.	.	4f	.	.
.	.	.	4e	.	.
.	.	.	1f#	1dd	.
=90	=90	=90	=90	=90	=90
0G	0G	0d]	0g	0dd	0b
*	*	*	*	*-	*-
!! Crucifixus
*Itenor	*Icalto	*Icant	*Icant
!Tenor	!Altus	!Cantus 2	!Cantus 1
*clefGv2	*clefG2	*clefG2	*clefG2
*k[b-]	*k[b-]	*k[b-]	*k[b-]
*?:X	*?:X	*?:X	*?:X
*M4/2	*M4/2	*M4/2	*M4/2
=91	=91	=91	=91
0r	1.g	0r	1dd
.	.	.	1ee
.	2e	.	.
=92	=92	=92	=92
0r	2f	0r	2dd
.	2g	.	2b
.	2.c	.	2cc
.	.	.	2cc
.	4d	.	.
=93	=93	=93	=93
1.g	4e	0r	1.b
.	4d	.	.
.	4e	.	.
.	4f	.	.
.	2.g	.	.
2e	.	.	2cc
.	4g	.	.
=94	=94	=94	=94
2f	2a	0r	1dd
2g	2b	.	.
4c	[1cc	.	1ee
4d	.	.	.
4e	.	.	.
4f	.	.	.
=95	=95	=95	=95
2.g	2cc]	1dd	2r
.	4b	.	1gg
4f	4a	.	.
2e	2b	1ee	.
2c	2cc	.	2ee
=96	=96	=96	=96
2d	2a	2dd	2ff
2e	1g	2b	2gg
1c	.	2cc	2ee
.	2e	2cc	2ee
=97	=97	=97	=97
2G	2.g	1.b	4dd
.	.	.	4cc
2.g	.	.	4b
.	4f	.	4a
.	4e	.	1g
4f	4f	.	.
2e	4g	2cc	.
.	4e	.	.
=98	=98	=98	=98
2d	4f	1dd	1a
.	4g	.	.
2f	1a	.	.
1e	.	[1ee	1b
.	2g#	.	.
=99	=99	=99	=99
1A	2a	1ee]	2a
.	2a	.	2cc
1e	2g	1r	2b
.	2e	.	2g
=100	=100	=100	=100
1r	2g	1ee	2b
.	2a	.	2cc
2r	4d	1ff	2dd
.	4e	.	.
2d	4f	.	4a
.	4g	.	4b
=101	=101	=101	=101
2c	1a	1.ee	4cc
.	.	.	4dd
2A	.	.	2.cc
2c	2g	.	.
.	.	.	4b
2d	2f	2dd	4a
.	.	.	4g
=102	=102	=102	=102
4A	1e	2cc	1a
4B	.	.	.
4c	.	1ee	.
4d	.	.	.
2e	1r	.	1r
2f	.	[2dd	.
=103	=103	=103	=103
2g	1r	2dd]	1ee
2a	.	2cc#	.
1d	2r	1dd	1ff
.	2a	.	.
=104	=104	=104	=104
1e	2g	1b	1.ee
.	2e	.	.
2c	2g	2cc	.
2d	2f	2a	2dd
=105	=105	=105	=105
1A	2.e	2a	2cc
.	.	2cc	1ee
.	4f#	.	.
1G	1g	1b	.
.	.	.	[2dd
=106	=106	=106	=106
1A	1e	1a	2dd]
.	.	.	2cc#
1d	1f#	2r	1dd
.	.	[2dd	.
=107	=107	=107	=107
1r	1r	2dd]	1ee
.	.	2cc#	.
1d	1a	[1dd	1ff
=108	=108	=108	=108
1B-	1b-	1dd]	1ff
1f	1a	1cc	2r
.	.	.	[2ff
=109	=109	=109	=109
1c	1g	2.cc	2ff]
.	.	.	1ee
.	.	4b-	.
1d	2f	4a	.
.	.	4g	.
.	[2a	2f	[2dd
=110	=110	=110	=110
1e	2a]	1g	4dd]
.	.	.	8cc
.	.	.	8b
.	1g	.	2cc#
1d	.	1a	1dd
.	2f#	.	.
!! Et resurrexit
*Itenor	*Icalto	*Icant	*Icant
!Tenor	!Altus	!Cantus 2	!Cantus 1
*clefGv2	*clefG2	*clefG2	*clefG2
*k[b-]	*k[b-]	*k[b-]	*k[b-]
*?:X	*?:X	*?:X	*?:X
*M3/2	*M3/2	*M3/2	*M3/2
=111	=111	=111	=111
1G	1g	1b	1dd
2r	2r	2r	2r
=112	=112	=112	=112
1r	2g	2dd	2b
.	2g	2dd	2b
2r	2c	2ee	2cc
=113	=113	=113	=113
1r	1g	1dd	1b
2r	2g	2b	2dd
=114	=114	=114	=114
1r	1c	1cc	2.ee
.	.	.	4ee
2r	2g	2b	2dd
=115	=115	=115	=115
1r	2a	2cc	2.cc
.	1g	1dd	.
.	.	.	8b
.	.	.	8a
2r	.	.	2b
=116	=116	=116	=116
1r	1c	1ee	1cc
2r	2r	2r	2r
!! secundum Scripturas
*Itenor	*Icalto	*Icant	*Icant
!Tenor	!Altus	!Cantus 2	!Cantus 1
*clefGv2	*clefG2	*clefG2	*clefG2
*k[b-]	*k[b-]	*k[b-]	*k[b-]
*?:X	*?:X	*?:X	*?:X
*M4/2	*M4/2	*M4/2	*M4/2
=117	=117	=117	=117
1e	1g	1b	1ee
1d	1a	1dd	1ff
=118	=118	=118	=118
2c	2.cc	2g	2ee
2.f	.	2.a	2cc
.	4b	.	.
.	2a	.	2dd
4e	.	4b	.
2c	2g	2cc	[2ee
=119	=119	=119	=119
2d	2f	2a	4ee]
.	.	.	4dd
2G	2g	2b-	1dd
1A	1e	[1a	.
.	.	.	2cc#
=120	=120	=120	=120
2r	1d	1a]	1dd
2d	.	.	.
2e	1r	1g	1b
2g	.	.	.
=121	=121	=121	=121
2f	2r	2a	1cc
2e	1g	2cc	.
1d	.	2b	1dd
.	2f#	2a	.
=122	=122	=122	=122
1.G	1g	4g	1.b
.	.	4a	.
.	.	4b	.
.	.	4cc	.
.	2g	4dd	.
.	.	4ee	.
2A	2f	[2ff	2cc
=123	=123	=123	=123
1B-	1d	2ff]	1dd
.	.	4ee	.
.	.	4dd	.
[1A	2a	1cc#	1ee
.	2e	.	.
=124	=124	=124	=124
1A]	2e	1r	2r
.	2f	.	2a
1r	2g	1ee	2b
.	2a	.	2cc
=125	=125	=125	=125
0r	4d	1ff	1dd
.	4e	.	.
.	4f	.	.
.	4g	.	.
.	2a	2ee	2cc
.	2g#	2ee	2b
=126	=126	=126	=126
2r	1a	2.ee	1cc
2A	.	.	.
.	.	4cc	.
2B	2r	2dd	2b
2c	2e	[2ee	[2a
=127	=127	=127	=127
2d	2f	4ee]	2a]
.	.	4dd	.
2B-	2d	1dd	2g
1A	1e	.	2a
.	.	2cc#	2a
=128	=128	=128	=128
1G	1g	0dd	1b-
1d	4f	.	2a
.	4g	.	.
.	4a	.	[2dd
.	4f	.	.
=129	=129	=129	=129
2r	1g	1b	4dd]
.	.	.	4cc
2g	.	.	2b
2f	2r	1cc	2a
2e	2g	.	2g
=130	=130	=130	=130
1d	2g	1.dd	1a
.	2f#	.	.
2r	1g	.	1b
2g	.	2dd	.
=131	=131	=131	=131
2g	1d	1dd	2a
2f#	.	.	2a
2.g	2r	1dd	2.b
.	2g	.	.
8f	.	.	8a
8e	.	.	8g
=132	=132	=132	=132
1d	2g	2dd	1a
.	2f#	2dd	.
1G	[1g	1dd	1b
=133	=133	=133	=133
1c	2g]	1ee	2r
.	2g	.	1cc
1G	2g	[1dd	.
.	2g	.	[2b
=134	=134	=134	=134
1A	1e	2dd]	2b]
.	.	2cc	2a
1e	2r	1b	1g
.	[2e	.	.
=135	=135	=135	=135
1A	2e]	1cc	1a
.	2f	.	.
1e	2.g	2b	2r
.	.	2cc	2g
.	4e	.	.
=136	=136	=136	=136
2d	4f	1dd	1a
.	4g	.	.
2f	1a	.	.
1e	.	[1ee	1b
.	2g#	.	.
=137	=137	=137	=137
1A	2a	0ee]	2cc
.	2cc	.	2a
1r	2cc	.	2a
.	2b	.	2g
=138	=138	=138	=138
2r	2.a	1r	2.cc
2a	.	.	.
.	8g	.	8b
.	8f	.	8a
2a	2e	1ee	1b
2g	2e	.	.
=139	=139	=139	=139
2.f	2d	1ff	2dd
.	2.a	.	1cc
8e	.	.	.
8d	.	.	.
2c	.	2ee	.
.	4g	.	.
2e	[2g	2cc	2g
=140	=140	=140	=140
1d	2g]	1dd	1a
.	2f#	.	.
[1c	[1g	[1ee	[1cc
=141	=141	=141	=141
2c]	2g]	2ee]	2cc]
2G	2g	2dd	2b
[1G	[1g	[1dd	1b
=142	=142	=142	=142
1G]	1g]	1dd]	2r
.	.	.	1b
1r	1e	1g	.
.	.	.	2cc
=143	=143	=143	=143
0r	2f#	2a	1dd
.	1g	1b	.
.	.	.	1dd
.	4f#	4a	.
.	4e	4g	.
=144	=144	=144	=144
0r	2f#	2a	1dd
.	2g	2b	.
.	2e	2g	1cc
.	[2f	[2a	.
=145	=145	=145	=145
0r	2f]	2a]	1dd
.	2g	2b	.
.	1c	2cc	1ee
.	.	4g	.
.	.	4a	.
=146	=146	=146	=146
2r	2.g	4b	1dd
.	.	4cc	.
1B	.	1dd	.
.	8f	.	.
.	8e	.	.
.	2d	.	1r
2c	[2g	4cc	.
.	.	4b	.
=147	=147	=147	=147
1d	2g]	2.a	2r
.	4f	.	1a
.	4e	8b	.
.	.	8cc	.
2d	1f#	1dd	.
2d	.	.	2b
=148	=148	=148	=148
2.c	0g	1ee	1cc
4d	.	.	.
[1e	.	2r	1b
.	.	[2b	.
=149	=149	=149	=149
1e]	2r	2b]	1g
.	2e	2cc	.
1d	1f#	1dd	1a
=150	=150	=150	=150
2r	1g	2dd	1b
2B	.	2dd	.
2c	2g	1cc	2r
2e	2g	.	2g
=151	=151	=151	=151
1d	1f	1dd	2a
.	.	.	2b
2.c	1g	[1ee	[1cc
4B	.	.	.
=152	=152	=152	=152
0A	0a	2ee]	2cc]
.	.	2dd	2dd
.	.	1cc	1ee
=153	=153	=153	=153
0e	0g#	0b	0ee
*-	*-	*-	*-
!! Et in Spiritum
**kern	**kern	**kern	**kern	**kern	**kern
*Ibass	*Itenor	*Itenor	*Icalto	*Icant	*Icant
!Bassus	!Tenor 2	!Tenor 1	!Altus	!Cantus 2	!Cantus 1
*clefF4	*clefGv2	*clefGv2	*clefG2	*clefG2	*clefG2
*k[b-]	*k[b-]	*k[b-]	*k[b-]	*k[b-]	*k[b-]
*?:X	*?:X	*?:X	*?:X	*?:X	*?:X
*M4/2	*M4/2	*M4/2	*M4/2	*M4/2	*M4/2
=154	=154	=154	=154	=154	=154
0E	0e	1.B	0g#	0b	0ee
.	.	[2e	.	.	.
=155	=155	=155	=155	=155	=155
1A	1e	2e]	1a	1cc#	1ee
.	.	2.A	.	.	.
2.D	2.d	.	2.a	2.dd	2.ff#
.	.	4A	.	.	.
.	.	[2d	.	.	.
4D	4d	.	4a	4dd	4ff#
=156	=156	=156	=156	=156	=156
2G	2B	4d]	1b	2dd	2gg
.	.	4c	.	.	.
1G	1d	4B	.	1dd	4g
.	.	4A	.	.	4a
.	.	1G	2r	.	4b
.	.	.	.	.	4g
2C	2c	.	2g	2ee	[2cc
=157	=157	=157	=157	=157	=157
1G	2d	2G	2g	1dd	2cc]
.	2G	2B	2g	.	2b
1A	2.c	4A	2e	1cc	[1ee
.	.	4B	.	.	.
.	.	4c	[2a	.	.
.	4d	4A	.	.	.
=158	=158	=158	=158	=158	=158
1E	1e	2B	4a]	1b	2ee]
.	.	.	8g	.	.
.	.	.	8f#	.	.
.	.	2B	2g#	.	2ee
1A	2r	1c	[1a	1a	[1ee
.	2e	.	.	.	.
=159	=159	=159	=159	=159	=159
2r	2A	1e	1a]	2r	1ee]
2A	4c	.	.	1a	.
.	4c	.	.	.	.
2D	1d	1f	2r	.	1r
[2d	.	.	2d	2a	.
=160	=160	=160	=160	=160	=160
2d]	1A	1e	2e	2a	1ee
2c#	.	.	1a	2a	.
1d	2r	1d	.	4f	1ff
.	.	.	.	4g	.
.	2d	.	2a	4a	.
.	.	.	.	4b	.
=161	=161	=161	=161	=161	=161
1A	2e	1c	1a	4cc	1ee
.	.	.	.	4dd	.
.	1A	.	.	4ee	.
.	.	.	.	4cc	.
1D	.	1d	2.f	1ff	1dd
.	2d	.	.	.	.
.	.	.	4g	.	.
=162	=162	=162	=162	=162	=162
0r	2e	2.A	1a	2.ee	2cc
.	4c	.	.	.	1ee
.	4d	4B	.	4dd	.
.	4e	2c	1g	2cc	.
.	4f	.	.	.	.
.	4g	2G	.	2b	[2dd
.	4f	.	.	.	.
=163	=163	=163	=163	=163	=163
0r	4e	1A	2r	0a	2dd]
.	4d	.	.	.	.
.	2e	.	2e	.	2cc#
.	1d	1r	1f#	.	1dd
=164	=164	=164	=164	=164	=164
2.E	1G	2r	1.g	0b	0r
.	.	2.B	.	.	.
4F	.	.	.	.	.
[1G	2.B	.	.	.	.
.	.	4c	.	.	.
.	.	2d	2g	.	.
.	4c	.	.	.	.
=165	=165	=165	=165	=165	=165
2G]	2d	2B	1g	0r	0r
2C	2c	2e	.	.	.
2G	2B	2d	2g	.	.
2C	2e	2c	2g	.	.
=166	=166	=166	=166	=166	=166
2D	2d	2.A	2f	0r	0r
1F	1c	.	1a	.	.
.	.	4B	.	.	.
.	.	2c	.	.	.
2E	2G	2c	[2g	.	.
=167	=167	=167	=167	=167	=167
1D	1A	1d	2g]	0r	1r
.	.	.	2f#	.	.
[1G	1G	1d	1g	.	2.b
.	.	.	.	.	4cc
=168	=168	=168	=168	=168	=168
0G]	0r	0r	2r	2.b	1dd
.	.	.	2.g	.	.
.	.	.	.	4cc	.
.	.	.	.	1dd	[1b
.	.	.	4g	.	.
.	.	.	2g	.	.
=169	=169	=169	=169	=169	=169
0r	0r	0r	2g	2dd	2b]
.	.	.	2c	2ee	2cc
.	.	.	2g	2dd	2b
.	.	.	2a	2cc	2a
=170	=170	=170	=170	=170	=170
0r	2r	0r	1e	1b	1g#
.	2e	.	.	.	.
.	2A	.	1r	2cc	1a
.	[2a	.	.	2cc	.
=171	=171	=171	=171	=171	=171
0r	2a]	0r	1e	1b	2e
.	2g#	.	.	.	2.ee
.	2.a	.	2A	[1cc	.
.	.	.	.	.	4dd
.	.	.	[2a	.	4cc
.	4g	.	.	.	4b
=172	=172	=172	=172	=172	=172
0r	2f	0r	2a]	1cc]	2a
.	2e	.	2g	.	1cc
.	1d	.	1f	1dd	.
.	.	.	.	.	2b
=173	=173	=173	=173	=173	=173
2r	1c	1e	2g	1ee	1cc
2A	.	.	2e	.	.
2D	1d	1f	[1a	1r	1r
[2d	.	.	.	.	.
=174	=174	=174	=174	=174	=174
2d]	2A	1.e	2a]	0r	1r
1c	1a	.	2A	.	.
.	.	.	2c	.	2r
2B	[2g	2d	2d	.	2g
=175	=175	=175	=175	=175	=175
1A	2g]	1c	2e	0r	2a
.	2f#	.	2c	.	2cc
1G	[1g	2d	1r	.	2b
.	.	[2e	.	.	2b
=176	=176	=176	=176	=176	=176
0A	2g]	2e]	0r	0r	1a
.	2f	1d	.	.	.
.	2.e	.	.	.	1a
.	.	2c	.	.	.
.	4f#	.	.	.	.
=177	=177	=177	=177	=177	=177
1G	1g	1d	2r	2.b	2r
.	.	.	1g	.	1b
.	.	.	.	4cc	.
1r	1d	1r	.	2dd	.
.	.	.	2f#	2dd	2a
=178	=178	=178	=178	=178	=178
1.G	2r	2.B	2g	0dd	2.b
.	1B	.	4G	.	.
.	.	4c	4A	.	4a
.	.	2d	4B	.	2g
.	.	.	4G	.	.
2F#	2A	2d	[2d	.	2a
=179	=179	=179	=179	=179	=179
2G	2B	1d	4d]	0dd	2g
.	.	.	4G	.	.
2G	2G	.	2g	.	2b
1D	[1A	1d	2f	.	1a
.	.	.	[2f	.	.
=180	=180	=180	=180	=180	=180
2F	2A]	1A	2f]	1cc	1a
2F	1c	.	2f	.	.
1C	.	1c	2.e	1ee	1g
.	2G	.	.	.	.
.	.	.	4f	.	.
=181	=181	=181	=181	=181	=181
0G	2.B	1d	1g	0dd	1r
.	4c	.	.	.	.
.	2d	1r	1g	.	1b
.	2G	.	.	.	.
=182	=182	=182	=182	=182	=182
0r	1A	2r	1e	2r	1cc#
.	.	2A	.	2a	.
.	1r	2d	1f	2a	2dd
.	.	2d	.	2a	2dd
=183	=183	=183	=183	=183	=183
0r	0r	1G	2g	1b	1dd
.	.	.	2g	.	.
.	.	2G	1g	2b	2dd
.	.	2c	.	2cc	[2ee
=184	=184	=184	=184	=184	=184
0r	0r	2e	2g	2b	2ee]
.	.	2f	1a	2a	1dd
.	.	1e	.	2b	.
.	.	.	[2g	2cc	2cc
=185	=185	=185	=185	=185	=185
0r	2r	1d	2g]	1dd	2b
.	2d	.	2f	.	2.a
.	2c	1r	2e	1r	.
.	.	.	.	.	8g
.	.	.	.	.	8f#
.	2B	.	[2d	.	2g#
=186	=186	=186	=186	=186	=186
1r	1A	2r	4d]	1ee	0a
.	.	.	8c	.	.
.	.	.	8B	.	.
.	.	2a	2c#	.	.
2r	2r	2f	1d	1ff	.
2d	2f	2d	.	.	.
=187	=187	=187	=187	=187	=187
2c	2g	2e	0r	2ee	0r
2A	2a	2c	.	2ee	.
2B-	2f	1d	.	2dd	.
2B-	2g	.	.	2dd	.
=188	=188	=188	=188	=188	=188
1A	1a	2r	2r	1cc	0r
.	.	2A	2a	.	.
2r	2r	2B	2g	2dd	.
2A	2A	2c	2e	[2ee	.
=189	=189	=189	=189	=189	=189
2F	2c	1A	2f	4ee]	1r
.	.	.	.	4dd	.
2D	2d	.	2f	1dd	.
1A	1e	2r	2e	.	1ee
.	.	2a	2A	2cc#	.
=190	=190	=190	=190	=190	=190
2r	1d	2f	2.a	1dd	1ff
2d	.	2d	.	.	.
.	.	.	4f	.	.
2c	2r	2e	2g	1r	2ee
2A	2a	2c	2a	.	2ee
=191	=191	=191	=191	=191	=191
2B-	2f	1d	4d	0r	2dd
.	.	.	4e	.	.
2B-	2d	.	4f	.	2dd
.	.	.	4g	.	.
2A	2e	2r	[1a	.	2cc
2A	2e	2c	.	.	[2ee
=192	=192	=192	=192	=192	=192
2F	2A	1f	1a_	0r	2ee]
2D	2.a	.	.	.	1dd
1A	.	1e	1a_	.	.
.	4g	.	.	.	.
.	2e	.	.	.	2cc#
=193	=193	=193	=193	=193	=193
1D	2f#	0d	1a]	1r	0dd
.	2f#	.	.	.	.
1G	2.g	.	1r	1b	.
.	4f	.	.	.	.
=194	=194	=194	=194	=194	=194
1A	2e	1r	1e	1cc	0r
.	2A	.	.	.	.
2D	2A	2r	1f	2.dd	.
2D	2A	2d	.	.	.
.	.	.	.	4dd	.
=195	=195	=195	=195	=195	=195
1G	2.B	2d	2.g	2dd	0r
.	.	2d	.	2dd	.
.	8A	.	4g	.	.
.	8B	.	.	.	.
1C	2c	2e	2g	2cc	.
.	2G	2e	2g	2ee	.
=196	=196	=196	=196	=196	=196
2D	2d	2A	2f	1dd	0r
2D	2d	2A	2a	.	.
1G	1d	1B	1g	1b	.
=197	=197	=197	=197	=197	=197
2C	2c	2G	2e	2cc	0r
2F	2c	2A	2f	2a	.
2G	2B	2G	2d	2b	.
2E	2G	2g	2e	2cc	.
=198	=198	=198	=198	=198	=198
2D	2A	2f	2f	2dd	0r
2C	1c	2e	2g	2ee	.
2F	.	1f	2a	2cc	.
2D	2F	.	2f	2dd	.
=199	=199	=199	=199	=199	=199
1C	4c	1e	2g	1ee	0r
.	4B	.	.	.	.
.	4A	.	1a	.	.
.	4G	.	.	.	.
[1D	2F#	2A	.	[1dd	.
.	2G	[2d	[2g	.	.
=200	=200	=200	=200	=200	=200
1D]	1A	4d]	2g]	0dd]	0r
.	.	4c	.	.	.
.	.	2A	2f#	.	.
1G	1G	1B	1g	.	.
!! Et exspecto
*Ibass	*Itenor	*Itenor	*Icalto	*Icant	*Icant
!Bassus	!Tenor 2	!Tenor 1	!Altus	!Cantus 2	!Cantus 1
*clefF4	*clefGv2	*clefGv2	*clefG2	*clefG2	*clefG2
*k[b-]	*k[b-]	*k[b-]	*k[b-]	*k[b-]	*k[b-]
*?:X	*?:X	*?:X	*?:X	*?:X	*?:X
*M3/2	*M3/2	*M3/2	*M3/2	*M3/2	*M3/2
=201	=201	=201	=201	=201	=201
1r	1r	1G	1g	1b	1dd
2r	2r	2c	2g	2cc	2ee
=202	=202	=202	=202	=202	=202
1r	1r	1d	1f#	1a	1dd
2r	2r	2G	2g	2dd	2b
=203	=203	=203	=203	=203	=203
1r	1r	2c	2e	2g	2cc
.	.	2c	2e	2g	2cc
2r	2r	2e	2g	2g	2b
=204	=204	=204	=204	=204	=204
1r	1r	2e	2c	2g	2cc
.	.	1d	1f	2a	1dd
2r	2r	.	.	2b	.
=205	=205	=205	=205	=205	=205
1r	1r	1c	1g	1cc	1ee
2r	2r	2c	2g	2ee	2cc
=206	=206	=206	=206	=206	=206
1r	1r	2B	2g	2dd	2dd
.	.	1c	1g	1cc	1ee
2r	2r	.	.	.	.
!! Et vitam
*Ibass	*Itenor	*Itenor	*Icalto	*Icant	*Icant
!Bassus	!Tenor 2	!Tenor 1	!Altus	!Cantus 2	!Cantus 1
*clefF4	*clefGv2	*clefGv2	*clefG2	*clefG2	*clefG2
*k[b-]	*k[b-]	*k[b-]	*k[b-]	*k[b-]	*k[b-]
*?:X	*?:X	*?:X	*?:X	*?:X	*?:X
*M4/2	*M4/2	*M4/2	*M4/2	*M4/2	*M4/2
=207	=207	=207	=207	=207	=207
0G	0d	1G	1g	1b	1dd
.	.	2r	2r	1dd	1b
.	.	2G	2g	.	.
=208	=208	=208	=208	=208	=208
1C	1c	2.G	1g	1ee	1cc
.	.	4A	.	.	.
1G	[1d	4B	1g	1dd	2.b
.	.	4A	.	.	.
.	.	4B	.	.	.
.	.	4c	.	.	4a
=209	=209	=209	=209	=209	=209
1G	2d]	1d	2.g	1b	2g
.	2B	.	.	.	2b
.	.	.	4f	.	.
1A	[1e	2c	2e	1cc	4a
.	.	.	.	.	4b
.	.	2A	[2a	.	4cc
.	.	.	.	.	4dd
=210	=210	=210	=210	=210	=210
1E	1e]	1B	2a]	1b	1ee
.	.	.	2g#	.	.
1r	1A	2.c	1a	1a	1ee
.	.	4d	.	.	.
=211	=211	=211	=211	=211	=211
1.A	2r	0e	2r	1a	2.cc
.	4A	.	1cc	.	.
.	4B	.	.	.	4b
.	4c	.	.	1ee	2a
.	4A	.	.	.	.
2G	2e	.	2b	.	2b
=212	=212	=212	=212	=212	=212
2.F	2A	2r	2.a	1.ff	1cc
.	1c	1A	.	.	.
4E	.	.	4g	.	.
2D	.	.	2f	.	1dd
2D	2B	2F	2d	2ff	.
=213	=213	=213	=213	=213	=213
1C	4c	2G	1e	1ee	0g
.	4d	.	.	.	.
.	4e	4c	.	.	.
.	4f	4d	.	.	.
2r	2g	4e	4c	1ee	.
.	.	4f	4d	.	.
[2c	2c	2g	4e	.	.
.	.	.	4f	.	.
=214	=214	=214	=214	=214	=214
2c]	2.d	1G	1g	1dd	2r
2B	.	.	.	.	2gg
.	4e	.	.	.	.
2.A	4f	2r	2a	1cc	2ff
.	4g	.	.	.	.
.	[2a	[2c	2e	.	2ee
4G	.	.	.	.	.
=215	=215	=215	=215	=215	=215
2F	2a]	2c]	2f	1dd	1dd
2G	4g	2B	2d	.	.
.	4f	.	.	.	.
1C	4e	2c	2g	1ee	2cc
.	4d	.	.	.	.
.	4c	2G	2e	.	[2gg
.	4B	.	.	.	.
=216	=216	=216	=216	=216	=216
1D	2.A	1d	0a	1dd	2gg]
.	.	.	.	.	2ff
.	4B	.	.	.	.
1A	2c	2e	.	1cc	4ee
.	.	.	.	.	4dd
.	2A	4c	.	.	4ee
.	.	4d	.	.	4ff
=217	=217	=217	=217	=217	=217
1E	2.B	4e	1g	1b	2gg
.	.	4f	.	.	.
.	.	4g	.	.	1ee
.	4c	4e	.	.	.
1r	1d	1f	2r	1a	.
.	.	.	[2a	.	2dd
=218	=218	=218	=218	=218	=218
0E	1B	[0e	2a]	0b	[0ee
.	.	.	4g	.	.
.	.	.	4f#	.	.
.	2.e	.	1g#	.	.
.	4d	.	.	.	.
=219	=219	=219	=219	=219	=219
0A	2.c	1e_	0a	0cc	1ee_
.	4B	.	.	.	.
.	1A	1e_	.	.	1ee_
=220	=220	=220	=220	=220	=220
0E	0B	0e]	0g#	0b	0ee]
==	==	==	==	==	==
*-	*-	*-	*-	*-	*-
!!!CDT: 1525/^1526/-1594/2/2
!!!OCY: Italia
!!!AGN: Mass (Paraphrase)
!!!AST: renaissance, vocal
!!!ASW: Gregorian Mass
!!!PWK: Masses, Book 3
!!!RNB: Cadence finals: G,D,C,E,F
!!!YOR: Le Opere Complete, v. 6, p. 175
!!!YOO: Rome, Italy: Fratelli Scalera
!!!END: 1992//
!!!EED: John Miller
!!!YEC: Copyright 2000, John Miller
!!!YEN: United States of America
!!!YEM: Rights to all derivative electronic formats reserved.
!!!YEM: Refer to licensing agreement for further details.
!!!YEM: This file must be accompanied by the licensing agreement.
!!!YEM: A copy of the licensing agreement may be found at http://www.music-cog.ohio-state.edu/HumdrumDatabases/Palestrina/license.txt
!!!EMD: converted to Humdrum by Bret Aarden
